!!!!SEGMENT: pl-sa--l-1636--055_anonim--keyboard-piece.krn
!!!cenid: 17xx:762
!!!COM: Anonim
!!!COM-rismid: pe30004985
!!!CDT:
!!!CNT:
!!!OTL: [Keyboard piece]
!!!PDT:
!!!AGN: Secular
!!!SMS-siglum: PL-SA
!!!SMS-shelfmark: L 1636
!!!SMS-shelfwork: 055 W
!!!SMS-variant:
!!!SMS-altvar:
!!!NIFC-rismid: 1001076832
!!!URL-scan: http://repozytorium.nifc.pl/skany/pl-sa-nut--l1636
!!!ONB-nifc: 15r, skan 0018, s. 6
**kern	**kern
*part1	*part1
*staff2	*staff1
*Iorgan	*Iempty
*I"Organo	*
*I'Org.	*
*clefF4	*clefG2
*k[]	*k[]
*a:	*a:
*M2/2	*M2/2
*met(c|)	*met(c|)
=1	=1
1A\ 1E\ 1AA\	1ee\ 1cc\ 1a\
=2-	=2-
8.A\L	8.cc\L
!	!LO:N:vis=8
16G\K	16b\K
8A\	8cc\
8B\J	8dd\J
8.c\L	8.ee\L
16B\K	16dd\K
8c\	8ee\
8d\J	8ff\J
=3	=3
8e\L	8gg\L
8d\	8ff\
8e\	8gg\
8c\J	8ee\J
8.d\L	8ff\L
.	8ee\
16c\K	.
8d\	8ff\
8B\J	8dd\J
=4	=4
!LO:TX:a:t=P:problem:mixed beam	!LO:TX:a:t=P:problem:mixed beam
8c\L	8ee\L
8C/	8e/
8D/	8f#X/
8E/J	8g/J
8F\L	8a\L
8G\	8b\
8A\	8cc\
8B\J	8dd\J
=5	=5
8c\L	8ee\L
16c\L	16ee\L
16B\J	16dd\J
8c\	8ee\
8A\J	8cc\J
8B\L	8dd\L
16B\L	16dd\L
16A\J	16cc\J
8B\	8dd\
8G\J	8b\J
=6	=6
4A\	4cc\
16B\LL	16dd\LL
16A\	16cc\
16B\	16dd\
16A\JJ	16cc\JJ
8B\L	8dd\L
8A\	8cc\
8G\	8b\
8F\J	8a\J
=7-	=7-
4E\	1ee\ 1b\ 1g\
16E\LL	.
16D\	.
16C\	.
16D\JJ	.
*2\right	*
2E\	.
=8	=8
1AA/	1ee\ 1cc\ 1a\
==	==
*-	*-
!!!system-decoration: s1,s2
!!!EED: Leszek Kubiak
!!!EST: 2020-12-08
!!!AIN: 1 organ
!!!ENC: Marcin Jachim
!!!END: 2020-06-11
